X: 09049
T: The ISLE OF MULL
C: Bob McQuillen 22 Sept 92
B: Bob's Note Book 9 #49
%R: march
Z: 2018 John Chambers <jc:trillian.mit.edu>
M: C
L: 1/4
K: D
DE \
| F>EFG | FEDE | FAA>B | A2d>c | B>ABc | defd | e>dBA | B2de |
| f4 | e4 | d>fed | BAdB | A>BdA | BdAG | F2E>D | E2 |]
[| FA \
| B>ABd | BAFE | FBB>A | B2AB | d>edB | ABde | fafd | e2fe |
| d2d>f | edBA | B2B>A | BcdB | A2d>B | AFEF | DD2D | D2 |]
%%begintext align
%% What a wonderful place! I hope that, some day,
%% you, too, can go there. Sarah Bauhan[?] took me there on the best vacation
%% I ever had. We stayed with the Iain Bains at Acheronic, and were (and still
%% are) most grateful for their hospitality; we enjoyed beautiful scenery and great boat
%% rides; ate haggis (yummy) and roast beef and broiled salmon (more
%% yummy!); we played music with good friends at pubs, and I can
%% tell you right now that, for as long as I live, part of me will be in the Isle of
%% Mull, and part of Mull will always be with me.
%%endtext

%%sep 1 1 500

%%sep 1 1 500

